X:35
T:October Jig
R:jig
C:Debbie Scott
S:Rodney Miller
N:Something like the way it's played in Montague, Mass.
M:6/8
L:1/8
K:Am
"Am"~A,3  C2D|"Em"~E3 AGE|"Am"~A,3  C2D|E2 "F"c Bcd|
"Am"~A,3  C2D|"Em"~E3 AGE|"Dm"D2"Dm"D3"E"D|"G"DG"G"E DB,G,:|
|:"Am"~A,3 c3|"G"AGE DB,G, |"Am"~A,3 c2d|"Em"edc AGE|
"Am"~A,3 c3|"G"AGE DB,G, |[1 "F"=F3-F2 "Em"E|D"G"GE DB,G,:|[2 "F"(=F3F2)G|"G"^G=GF FED|]
% ----------------------------------------------------------------------------
